X: 102
T: Pan wugeng
%%abc-version 2.0
%%abcx-abcm2ps-target-version 5.9.1 (29 Sep 2008)
%%abc-creator hum2abc beta
%%abcx-conversion-date 2013/10/02 07:52:29
%%abc-edited-by Helmut Schaffrath
%%humdrum-veritas 181616897
%%humdrum-veritas-data 462414888
%%continueall 1
%%barnumbers 0
L: 1/8
M: 2/4
K: Eb
F2F G [I:setbarnb 1]| 
F E C E | 
F2G E | 
F4 | 
B2c B | 
A2c G | 
F E F G | 
F EC2 | 
E4 | 
C E F G | 
G D E F | 
E4 | 
c d c B | 
c2z2 | 
c d c B | 
A2c G | 
F E F G | 
F EC2 | 
E4 | 
GE2G | 
F4 | 
E3F | 
B3G | 
F GB2 | 
B G F E | 
C4 | 
c B c e | 
eB2c | 
B4 | 
G> B c e | 
eB2c | 
B4 |]  



